X: 5021
T: Brian Boru's March
R: jig
M: 6/8
K: Aminor
ed|:c3/2B/A Aed|c3/2B/A Adc|B3/2A/G Gdc|B3/2A/G Ged|
c3/2B/A Aed|c3/2B/A A3|A3/2c/d e2 d|1 c3/2B/A Aed:|2 c3/2B/A A2 G||
|:A3/2c/d e2 d|e2 d e3/2c/A|G3/2A/B d2 B|d2 B d3/2B/G|A3/2c/d e2 d|
e2 d e3/2c/A|A3/2c/d e2 d|1 c3/2B/A A2 G:|2 c3/2B/A A2 B||
|:c3/2B/A a2 a|c3/2B/A a2 a|B3/2A/G g2 g|B3/2A/G g2 g|
c3/2B/A a2 a|c3/2B/A a2 a|A3/2c/d e2 d|c3/2B/A A2B:|
|:c3/2d/e g2 e|g2 e g3/2e/c|G3/2A/B d2 B|d2 B d3/2B/G|
c3/2d/e g2 e|g2 e g3/2e/c|A3/2c/d e2 d|1 c3/2B/A A2 B:|2 c3/2B/A A2||

